X:630
T: McGoldrick's
T: R\'il Mhic Ghualraic
S: B.Breathnach: "Ceol Rince na hEireann" II/155
Z: B.Black
L: 1/8
M: 4/4
R: reel
K: D
d2 Ad cdAd|cdef gece|d2 Ad cdAG|FAEF GABe|
d2 Ad cdAd|cdef (3gfg fg|afge faed|cdAF GABe :|
d2 fd adfa|dafa gece|d2 fd adfa|ceAc dABc|
d2 fd adfa|cdef (3gfg fg|afge faed|cdAF GABe :|

